icons/file-pdf-fill.svg

<svg viewBox="0 0 24 24" fill="currentColor" xmlns="http://www.w3.org/2000/svg"><path d="M16 2L21 7V21.0082C21 21.556 20.5551 22 20.0066 22H3.9934C3.44476 22 3 21.5447 3 21.0082V2.9918C3 2.44405 3.44495 2 3.9934 2H16ZM12 16C14.2091 16 16 14.2091 16 12C16 9.79086 14.2091 8 12 8H8V16H12ZM10 10H12C13.1046 10 14 10.8954 14 12C14 13.1046 13.1046 14 12 14H10V10Z"/></svg>

<svg xmlns="http://www.w3.org/2000/svg" viewBox="0 0 24 24">
    <g>
        <path fill="none" d="M0 0h24v24H0z"/>
        <path d="M16 2l5 5v14.008a.993.993 0 0 1-.993.992H3.993A1 1 0 0 1 3 21.008V2.992C3 2.444 3.445 2 3.993 2H16zm-4 14a4 4 0 1 0 0-8H8v8h4zm-2-6h2a2 2 0 1 1 0 4h-2v-4z"/>
    </g>
</svg>
